Newaita-dark/apps/22/com.github.artemanufrij.showmypictures.svg

<svg height="22" viewBox="0 0 22 22" width="22" xmlns="http://www.w3.org/2000/svg" xmlns:xlink="http://www.w3.org/1999/xlink"><linearGradient id="a" gradientUnits="userSpaceOnUse" x1="10.9151136" x2="10.9151136" y1="19.27333715" y2="20.18293042919"><stop offset="0" stop-opacity=".27451"/><stop offset="1" stop-opacity="0"/></linearGradient><linearGradient id="b"><stop offset="0" stop-opacity=".313726"/><stop offset=".222222" stop-opacity=".27451"/><stop offset="1" stop-opacity="0"/></linearGradient><radialGradient id="c" cx="450.908936" cy="189.579361" gradientTransform="matrix(.00000012 -.0537161 -.0966889 -.00000007 35.839821 43.721791)" gradientUnits="userSpaceOnUse" r="21.166656" xlink:href="#b"/><radialGradient id="d" cx="450.908936" cy="189.579361" gradientTransform="matrix(-.00000012 .0537161 .0966889 .00000007 -14.009609 -5.175142)" gradientUnits="userSpaceOnUse" r="21.166656" xlink:href="#b"/><radialGradient id="e" cx="450.908936" cy="189.579361" gradientTransform="matrix(-.00000012 -.0537161 .0966889 -.00000007 -14.009609 43.721791)" gradientUnits="userSpaceOnUse" r="21.166656" xlink:href="#b"/><radialGradient id="f" cx="450.908936" cy="189.579361" gradientTransform="matrix(.00000012 .0537161 -.0966889 .00000007 35.839819 -5.175142)" gradientUnits="userSpaceOnUse" r="21.166656" xlink:href="#b"/><linearGradient id="g" gradientUnits="userSpaceOnUse" x1="7.27674417081" x2="7.27674417081" y1="19.27333515" y2="1.99106765838"><stop offset="0" stop-color="#bdbdbd"/><stop offset="1" stop-color="#e0e0e0"/></linearGradient><linearGradient id="h" gradientUnits="userSpaceOnUse" x1="10.91511595541" x2="10.9151166" y1="15.180166425" y2="2.90066025"><stop offset="0" stop-color="#e57373"/><stop offset="1" stop-color="#64b5f6"/></linearGradient><linearGradient id="i" gradientUnits="userSpaceOnUse" x1="15.2356615375" x2="15.2356615375" y1="8.8130176" y2="4.71985481246"><stop offset="0" stop-color="#f44336"/><stop offset="1" stop-color="#ef5350"/></linearGradient><linearGradient id="j" gradientUnits="userSpaceOnUse" x1="10.915104" x2="10.915104" y1="15.06112001286" y2="3.23642348985"><stop offset="0" stop-color="#424242"/><stop offset="1" stop-color="#616161"/></linearGradient><linearGradient id="k" gradientUnits="userSpaceOnUse" x1="10.915104" x2="10.915104" y1="15.06112001286" y2="3.23642348985"><stop offset="0" stop-color="#f48fb1"/><stop offset="1" stop-color="#fce4ec"/></linearGradient><path d="m4.09375 19.207031h13.644531v1.007813h-13.644531zm0 0" fill="url(#a)"/><path d="m17.738281 19.273438h1.816407v-.910157h-1.816407zm0 0" fill="url(#c)"/><path d="m4.09375 19.273438h-1.820312v.910156h1.820312zm0 0" fill="url(#d)"/><path d="m4.09375 19.273438h-1.820312v-.910157h1.820312zm0 0" fill="url(#e)"/><path d="m17.738281 19.273438h1.816407v.910156h-1.816407zm0 0" fill="url(#f)"/><path d="m3.183594 1.992188h15.464844c.5 0 .90625.40625.90625.910156v15.460937c0 .503907-.40625.910157-.90625.910157h-15.464844c-.503906 0-.910156-.40625-.910156-.910157v-15.460937c0-.503906.40625-.910156.910156-.910156zm0 0" fill="url(#g)"/><path d="m3.183594 1.992188c-.503906 0-.910156.40625-.910156.910156v.113281c0-.503906.40625-.910156.910156-.910156h15.464844c.503906 0 .90625.40625.90625.910156v-.113281c0-.503906-.402344-.910156-.90625-.910156zm0 0" fill="#fff"/><path d="m3.183594 19.195312c-.503906 0-.910156-.40625-.910156-.910156v-.113281c0 .503906.40625.90625.910156.90625h15.464844c.503906 0 .90625-.402344.90625-.90625v.113281c0 .503906-.402344.910156-.90625.910156zm0 0" fill-opacity=".196078"/><path d="m74.083834-168.640791h359.874725c11.635253 0 21.088895 9.453643 21.088895 21.179796v359.783824c0 11.726153-9.453642 21.179796-21.088895 21.179796h-359.874725c-11.726152 0-21.179795-9.453643-21.179795-21.179796v-359.783824c0-11.726153 9.453643-21.179796 21.179795-21.179796zm0 0" fill="none" stroke="#212121" stroke-linecap="round" stroke-width="3" transform="matrix(.0429729 0 0 .0429729 0 9.239163)"/><path d="m3.636719 2.902344h14.554687c.25 0 .457032.203125.457032.453125v10.914062c0 .253907-.207032.457031-.457032.457031h-14.554687c-.25 0-.453125-.203124-.453125-.457031v-10.914062c0-.25.203125-.453125.453125-.453125zm0 0" fill="url(#h)"/><path d="m15.007812 4.71875h.457032c1.003906 0 1.816406.917969 1.816406 2.046875 0 1.132813-.8125 2.046875-1.816406 2.046875h-.457032c-1.003906 0-1.820312-.914062-1.820312-2.046875 0-1.128906.816406-2.046875 1.820312-2.046875zm0 0" fill="url(#i)"/><path d="m7.269531 6.421875c-.117187.003906-.230469.050781-.3125.132813l-3.773437 3.773437v3.941406c0 .253907.203125.457031.453125.457031h14.554687c.253906 0 .457032-.203124.457032-.457031v-3.804687l-2.886719-2.5625c-.1875-.167969-.472657-.148438-.636719.039062l-2.867188 3.277344-4.660156-4.664062c-.089844-.085938-.207031-.132813-.328125-.132813zm0 0" fill="url(#j)"/><path d="m7.269531 6.421875c-.117187.003906-.230469.050781-.3125.132813l-1.773437 1.773437.5.59375c.230468.226563.890625.238281 1.59375-.226563.449218-.449218.992187-.410156 1.363281 0 .53125.488282 1.007813.453126 1.546875.453126l-2.589844-2.59375c-.089844-.085938-.207031-.132813-.328125-.132813zm8.1875 1.367187c-.125 0-.246093.054688-.332031.152344l-1.058594 1.207032h.03125c.082032.171874.113282.796874.457032.457031.582031-.585938.679687-.34375.910156-.117188.339844.34375.566406.683594.90625.570313.570312-.226563.667968-.789063.417968-1.246094l-1.027343-.910156c-.085938-.078125-.195313-.117188-.304688-.113282zm0 0" fill="url(#k)"/><g fill="none" stroke-linecap="round" stroke-width="3"><path d="m84.628282-147.460995h338.694929c5.817626 0 10.635348 4.726821 10.635348 10.544447v253.975747c0 5.908527-4.817722 10.635348-10.635348 10.635348h-338.694929c-5.817626 0-10.544448-4.726821-10.544448-10.635348v-253.975747c0-5.817626 4.726822-10.544447 10.544448-10.544447zm0 0" stroke="#212121" transform="matrix(.0429729 0 0 .0429729 0 9.239163)"/><path d="m221.576818 136.336901c-2.181609-14.271364 15.45307-20.725294 7.362934.818104-6.999332 18.907285-16.543875 19.634488-16.362074 14.816767.818103-6.908432 9.362742-3.454216 15.816671-2.636112 8.453738 1.090805 16.725676-11.08985 16.271174-19.179987" stroke="#1a237e" stroke-linejoin="round" transform="matrix(.0429729 0 0 .0429729 3.638368 11.285746)"/><path d="m239.211498 128.337665c4.36322-14.362265 28.542729-20.997995 20.543493.545402-7.090232 18.907286-18.725485 18.725485-19.90719 14.089564-1.272606-4.545021 4.908622-12.907858 4.817722-12.816958" stroke="#1a237e" stroke-linejoin="round" transform="matrix(.0429729 0 0 .0429729 3.638368 11.285746)"/><path d="m265.299916 121.338333c17.72558-4.726821 15.089468-11.453451 14.453165-13.725962-9.726344 19.089087-10.544448 35.632961-9.908145 30.633439" stroke="#1a237e" stroke-linejoin="round" transform="matrix(.0429729 0 0 .0429729 3.638368 11.285746)"/><path d="m285.298006 112.702794c.181801-11.635252 19.179987-8.726439 9.180941 1.363507-8.271937 8.271937-19.361787 12.907858-15.180368 19.179986 5.090423 6.908431 18.816385-3.363315 12.180655-9.817244-6.54483-5.726726-7.908336-7.817436-8.544639-10.089946" stroke="#1a237e" stroke-linejoin="round" transform="matrix(.0429729 0 0 .0429729 3.638368 11.285746)"/><path d="m214.304786 166.061335c52.904038-26.452019 113.807313-26.452019 100.535853-21.179795" stroke="#1a237e" stroke-linejoin="round" transform="matrix(.0429729 0 0 .0429729 3.638368 11.285746)"/></g></svg>

<?xml version="1.0" encoding="UTF-8"?>
<svg xmlns="http://www.w3.org/2000/svg" xmlns:xlink="http://www.w3.org/1999/xlink" width="22px" height="22px" viewBox="0 0 22 22" version="1.1">
<defs>
<linearGradient id="linear0" gradientUnits="userSpaceOnUse" x1="254" y1="233.5" x2="254" y2="254.666672" gradientTransform="matrix(0.0429729,0,0,0.0429729,-0.00000262285,9.239165)">
<stop offset="0" style="stop-color:rgb(0%,0%,0%);stop-opacity:0.27451;"/>
<stop offset="1" style="stop-color:rgb(0%,0%,0%);stop-opacity:0;"/>
</linearGradient>
<radialGradient id="radial0" gradientUnits="userSpaceOnUse" cx="450.908936" cy="189.579361" fx="450.908936" fy="189.579361" r="21.166656" gradientTransform="matrix(0.000000119742,-0.0537161,-0.0966889,-0.0000000698078,35.839821,43.721791)">
<stop offset="0" style="stop-color:rgb(0%,0%,0%);stop-opacity:0.313726;"/>
<stop offset="0.222222" style="stop-color:rgb(0%,0%,0%);stop-opacity:0.27451;"/>
<stop offset="1" style="stop-color:rgb(0%,0%,0%);stop-opacity:0;"/>
</radialGradient>
<radialGradient id="radial1" gradientUnits="userSpaceOnUse" cx="450.908936" cy="189.579361" fx="450.908936" fy="189.579361" r="21.166656" gradientTransform="matrix(-0.000000119742,0.0537161,0.0966889,0.0000000698078,-14.009609,-5.175142)">
<stop offset="0" style="stop-color:rgb(0%,0%,0%);stop-opacity:0.313726;"/>
<stop offset="0.222222" style="stop-color:rgb(0%,0%,0%);stop-opacity:0.27451;"/>
<stop offset="1" style="stop-color:rgb(0%,0%,0%);stop-opacity:0;"/>
</radialGradient>
<radialGradient id="radial2" gradientUnits="userSpaceOnUse" cx="450.908936" cy="189.579361" fx="450.908936" fy="189.579361" r="21.166656" gradientTransform="matrix(-0.000000119742,-0.0537161,0.0966889,-0.0000000698078,-14.009609,43.721791)">
<stop offset="0" style="stop-color:rgb(0%,0%,0%);stop-opacity:0.313726;"/>
<stop offset="0.222222" style="stop-color:rgb(0%,0%,0%);stop-opacity:0.27451;"/>
<stop offset="1" style="stop-color:rgb(0%,0%,0%);stop-opacity:0;"/>
</radialGradient>
<radialGradient id="radial3" gradientUnits="userSpaceOnUse" cx="450.908936" cy="189.579361" fx="450.908936" fy="189.579361" r="21.166656" gradientTransform="matrix(0.000000119742,0.0537161,-0.0966889,0.0000000698078,35.839819,-5.175142)">
<stop offset="0" style="stop-color:rgb(0%,0%,0%);stop-opacity:0.313726;"/>
<stop offset="0.222222" style="stop-color:rgb(0%,0%,0%);stop-opacity:0.27451;"/>
<stop offset="1" style="stop-color:rgb(0%,0%,0%);stop-opacity:0;"/>
</radialGradient>
<linearGradient id="linear1" gradientUnits="userSpaceOnUse" x1="169.333328" y1="233.5" x2="169.333328" y2="-168.666656" gradientTransform="matrix(0.0429729,0,0,0.0429729,0,9.239163)">
<stop offset="0" style="stop-color:rgb(74.117649%,74.117649%,74.117649%);stop-opacity:1;"/>
<stop offset="1" style="stop-color:rgb(87.843138%,87.843138%,87.843138%);stop-opacity:1;"/>
</linearGradient>
<linearGradient id="linear2" gradientUnits="userSpaceOnUse" x1="253.999985" y1="138.25" x2="254" y2="-147.5" gradientTransform="matrix(0.0429729,0,0,0.0429729,0,9.239163)">
<stop offset="0" style="stop-color:rgb(89.803922%,45.09804%,45.09804%);stop-opacity:1;"/>
<stop offset="1" style="stop-color:rgb(39.215687%,70.980394%,96.470588%);stop-opacity:1;"/>
</linearGradient>
<linearGradient id="linear3" gradientUnits="userSpaceOnUse" x1="301.625" y1="-84" x2="301.625" y2="-136.916672" gradientTransform="matrix(0.0773511,0,0,0.0773511,-8.095364,15.31051)">
<stop offset="0" style="stop-color:rgb(95.686275%,26.274511%,21.176471%);stop-opacity:1;"/>
<stop offset="1" style="stop-color:rgb(93.725491%,32.549021%,31.37255%);stop-opacity:1;"/>
</linearGradient>
<linearGradient id="linear4" gradientUnits="userSpaceOnUse" x1="960" y1="1295.118164" x2="960" y2="255.118118" gradientTransform="matrix(0.0113699,0,0,0.0113699,0.000000184783,0.335756)">
<stop offset="0" style="stop-color:rgb(25.882354%,25.882354%,25.882354%);stop-opacity:1;"/>
<stop offset="1" style="stop-color:rgb(38.039216%,38.039216%,38.039216%);stop-opacity:1;"/>
</linearGradient>
<linearGradient id="linear5" gradientUnits="userSpaceOnUse" x1="960" y1="1295.118164" x2="960" y2="255.118118" gradientTransform="matrix(0.0113699,0,0,0.0113699,0.000000184783,0.335756)">
<stop offset="0" style="stop-color:rgb(95.686275%,56.078434%,69.411767%);stop-opacity:1;"/>
<stop offset="1" style="stop-color:rgb(98.823529%,89.411765%,92.54902%);stop-opacity:1;"/>
</linearGradient>
</defs>
<g id="surface1">
<path style=" stroke:none;fill-rule:nonzero;fill:url(#linear0);" d="M 4.09375 19.207031 L 17.738281 19.207031 L 17.738281 20.214844 L 4.09375 20.214844 Z M 4.09375 19.207031 "/>
<path style=" stroke:none;fill-rule:nonzero;fill:url(#radial0);" d="M 17.738281 19.273438 L 19.554688 19.273438 L 19.554688 18.363281 L 17.738281 18.363281 Z M 17.738281 19.273438 "/>
<path style=" stroke:none;fill-rule:nonzero;fill:url(#radial1);" d="M 4.09375 19.273438 L 2.273438 19.273438 L 2.273438 20.183594 L 4.09375 20.183594 Z M 4.09375 19.273438 "/>
<path style=" stroke:none;fill-rule:nonzero;fill:url(#radial2);" d="M 4.09375 19.273438 L 2.273438 19.273438 L 2.273438 18.363281 L 4.09375 18.363281 Z M 4.09375 19.273438 "/>
<path style=" stroke:none;fill-rule:nonzero;fill:url(#radial3);" d="M 17.738281 19.273438 L 19.554688 19.273438 L 19.554688 20.183594 L 17.738281 20.183594 Z M 17.738281 19.273438 "/>
<path style=" stroke:none;fill-rule:nonzero;fill:url(#linear1);" d="M 3.183594 1.992188 L 18.648438 1.992188 C 19.148438 1.992188 19.554688 2.398438 19.554688 2.902344 L 19.554688 18.363281 C 19.554688 18.867188 19.148438 19.273438 18.648438 19.273438 L 3.183594 19.273438 C 2.679688 19.273438 2.273438 18.867188 2.273438 18.363281 L 2.273438 2.902344 C 2.273438 2.398438 2.679688 1.992188 3.183594 1.992188 Z M 3.183594 1.992188 "/>
<path style=" stroke:none;fill-rule:nonzero;fill:rgb(100%,100%,100%);fill-opacity:1;" d="M 3.183594 1.992188 C 2.679688 1.992188 2.273438 2.398438 2.273438 2.902344 L 2.273438 3.015625 C 2.273438 2.511719 2.679688 2.105469 3.183594 2.105469 L 18.648438 2.105469 C 19.152344 2.105469 19.554688 2.511719 19.554688 3.015625 L 19.554688 2.902344 C 19.554688 2.398438 19.152344 1.992188 18.648438 1.992188 Z M 3.183594 1.992188 "/>
<path style=" stroke:none;fill-rule:nonzero;fill:rgb(0%,0%,0%);fill-opacity:0.196078;" d="M 3.183594 19.195312 C 2.679688 19.195312 2.273438 18.789062 2.273438 18.285156 L 2.273438 18.171875 C 2.273438 18.675781 2.679688 19.078125 3.183594 19.078125 L 18.648438 19.078125 C 19.152344 19.078125 19.554688 18.675781 19.554688 18.171875 L 19.554688 18.285156 C 19.554688 18.789062 19.152344 19.195312 18.648438 19.195312 Z M 3.183594 19.195312 "/>
<path style="fill:none;stroke-width:3;stroke-linecap:round;stroke-linejoin:miter;stroke:rgb(12.941177%,12.941177%,12.941177%);stroke-opacity:1;stroke-miterlimit:4;" d="M 74.083834 -168.640791 L 433.958559 -168.640791 C 445.593812 -168.640791 455.047454 -159.187148 455.047454 -147.460995 L 455.047454 212.322829 C 455.047454 224.048982 445.593812 233.502625 433.958559 233.502625 L 74.083834 233.502625 C 62.357682 233.502625 52.904039 224.048982 52.904039 212.322829 L 52.904039 -147.460995 C 52.904039 -159.187148 62.357682 -168.640791 74.083834 -168.640791 Z M 74.083834 -168.640791 " transform="matrix(0.0429729,0,0,0.0429729,0,9.239163)"/>
<path style=" stroke:none;fill-rule:nonzero;fill:url(#linear2);" d="M 3.636719 2.902344 L 18.191406 2.902344 C 18.441406 2.902344 18.648438 3.105469 18.648438 3.355469 L 18.648438 14.269531 C 18.648438 14.523438 18.441406 14.726562 18.191406 14.726562 L 3.636719 14.726562 C 3.386719 14.726562 3.183594 14.523438 3.183594 14.269531 L 3.183594 3.355469 C 3.183594 3.105469 3.386719 2.902344 3.636719 2.902344 Z M 3.636719 2.902344 "/>
<path style=" stroke:none;fill-rule:nonzero;fill:url(#linear3);" d="M 15.007812 4.71875 L 15.464844 4.71875 C 16.46875 4.71875 17.28125 5.636719 17.28125 6.765625 C 17.28125 7.898438 16.46875 8.8125 15.464844 8.8125 L 15.007812 8.8125 C 14.003906 8.8125 13.1875 7.898438 13.1875 6.765625 C 13.1875 5.636719 14.003906 4.71875 15.007812 4.71875 Z M 15.007812 4.71875 "/>
<path style=" stroke:none;fill-rule:nonzero;fill:url(#linear4);" d="M 7.269531 6.421875 C 7.152344 6.425781 7.039062 6.472656 6.957031 6.554688 L 3.183594 10.328125 L 3.183594 14.269531 C 3.183594 14.523438 3.386719 14.726562 3.636719 14.726562 L 18.191406 14.726562 C 18.445312 14.726562 18.648438 14.523438 18.648438 14.269531 L 18.648438 10.464844 L 15.761719 7.902344 C 15.574219 7.734375 15.289062 7.753906 15.125 7.941406 L 12.257812 11.21875 L 7.597656 6.554688 C 7.507812 6.46875 7.390625 6.421875 7.269531 6.421875 Z M 7.269531 6.421875 "/>
<path style=" stroke:none;fill-rule:nonzero;fill:url(#linear5);" d="M 7.269531 6.421875 C 7.152344 6.425781 7.039062 6.472656 6.957031 6.554688 L 5.183594 8.328125 L 5.683594 8.921875 C 5.914062 9.148438 6.574219 9.160156 7.277344 8.695312 C 7.726562 8.246094 8.269531 8.285156 8.640625 8.695312 C 9.171875 9.183594 9.648438 9.148438 10.1875 9.148438 L 7.597656 6.554688 C 7.507812 6.46875 7.390625 6.421875 7.269531 6.421875 Z M 15.457031 7.789062 C 15.332031 7.789062 15.210938 7.84375 15.125 7.941406 L 14.066406 9.148438 L 14.097656 9.148438 C 14.179688 9.320312 14.210938 9.945312 14.554688 9.605469 C 15.136719 9.019531 15.234375 9.261719 15.464844 9.488281 C 15.804688 9.832031 16.03125 10.171875 16.371094 10.058594 C 16.941406 9.832031 17.039062 9.269531 16.789062 8.8125 L 15.761719 7.902344 C 15.675781 7.824219 15.566406 7.785156 15.457031 7.789062 Z M 15.457031 7.789062 "/>
<path style="fill:none;stroke-width:3;stroke-linecap:round;stroke-linejoin:miter;stroke:rgb(12.941177%,12.941177%,12.941177%);stroke-opacity:1;stroke-miterlimit:4;" d="M 84.628282 -147.460995 L 423.323211 -147.460995 C 429.140837 -147.460995 433.958559 -142.734174 433.958559 -136.916548 L 433.958559 117.059199 C 433.958559 122.967726 429.140837 127.694547 423.323211 127.694547 L 84.628282 127.694547 C 78.810656 127.694547 74.083834 122.967726 74.083834 117.059199 L 74.083834 -136.916548 C 74.083834 -142.734174 78.810656 -147.460995 84.628282 -147.460995 Z M 84.628282 -147.460995 " transform="matrix(0.0429729,0,0,0.0429729,0,9.239163)"/>
<path style="fill:none;stroke-width:3;stroke-linecap:round;stroke-linejoin:round;stroke:rgb(10.196079%,13.725491%,49.411765%);stroke-opacity:1;stroke-miterlimit:4;" d="M 221.576818 136.336901 C 219.395209 122.065537 237.029888 115.611607 228.939752 137.155005 C 221.94042 156.06229 212.395877 156.789493 212.577678 151.971772 C 213.395781 145.06334 221.94042 148.517556 228.394349 149.33566 C 236.848087 150.426465 245.120025 138.24581 244.665523 130.155673 " transform="matrix(0.0429729,0,0,0.0429729,3.638368,11.285746)"/>
<path style="fill:none;stroke-width:3;stroke-linecap:round;stroke-linejoin:round;stroke:rgb(10.196079%,13.725491%,49.411765%);stroke-opacity:1;stroke-miterlimit:4;" d="M 239.211498 128.337665 C 243.574718 113.9754 267.754227 107.33967 259.754991 128.883067 C 252.664759 147.790353 241.029506 147.608552 239.847801 142.972631 C 238.575195 138.42761 244.756423 130.064773 244.665523 130.155673 " transform="matrix(0.0429729,0,0,0.0429729,3.638368,11.285746)"/>
<path style="fill:none;stroke-width:3;stroke-linecap:round;stroke-linejoin:round;stroke:rgb(10.196079%,13.725491%,49.411765%);stroke-opacity:1;stroke-miterlimit:4;" d="M 265.299916 121.338333 C 283.025496 116.611512 280.389384 109.884882 279.753081 107.612371 C 270.026737 126.701458 269.208633 143.245332 269.844936 138.24581 " transform="matrix(0.0429729,0,0,0.0429729,3.638368,11.285746)"/>
<path style="fill:none;stroke-width:3;stroke-linecap:round;stroke-linejoin:round;stroke:rgb(10.196079%,13.725491%,49.411765%);stroke-opacity:1;stroke-miterlimit:4;" d="M 285.298006 112.702794 C 285.479807 101.067542 304.477993 103.976355 294.478947 114.066301 C 286.20701 122.338238 275.11716 126.974159 279.298579 133.246287 C 284.389002 140.154718 298.114964 129.882972 291.479234 123.429043 C 284.934404 117.702317 283.570898 115.611607 282.934595 113.339097 " transform="matrix(0.0429729,0,0,0.0429729,3.638368,11.285746)"/>
<path style="fill:none;stroke-width:3;stroke-linecap:round;stroke-linejoin:round;stroke:rgb(10.196079%,13.725491%,49.411765%);stroke-opacity:1;stroke-miterlimit:4;" d="M 214.304786 166.061335 C 267.208824 139.609316 328.112099 139.609316 314.840639 144.88154 " transform="matrix(0.0429729,0,0,0.0429729,3.638368,11.285746)"/>
</g>
</svg>
